X:137
T:Reel 137
M:4/4
K:Dmix
L:1/8
cB|AD (3DDD  (3ABc GF|EDCD EFGB|AD (3DDD  (3ABc GF|EDCE D2GE|AD (3DDD  (3ABc GF|EDCD EFG2|Addc  (3ABc GF|EDCE D2|z2|ECEG cBcd|ecdB cAGB|Addc dcde|f2ed cAGF|ECEG cBcd|ecdB cAGB|Addc  (3ABc GF|EDCE D2|
